X:1
T:Title
%%score ( 1 2 ) { 3 | 4 }
L:1/8
Q:1/4=87
M:6/8
K:G
V:1 treble nm="Clarinet, Soprano"
V:2 treble 
V:3 bass nm="Choir Pad, The Bells of Conscience"
V:4 bass 
V:1
 [B,D] [DB]2- [DB]2 [^C_B] | [DB][B,G][B,D]- [B,D]2- [B,D]/ z/ | D B2- B2 _B | Bdc- c2- c/ z/ | %4
w: By~James~M.~Dungan~ * * *||||
 c c2- c2 B | A[Gd]G- G3 | G G2- G-[EG][FA] | [GB] A2- [^CA-][=C-A]>C | [CD] [DB]2- [DB]2 [^C_B] | %9
w: |||||
 [DB][DG][B,D]- [B,D]2- [B,D]/ z/ | [B,D] B2- B2 c | d[EGd][EGc]- [EGc]2- [EGc]/ z/ | c G2- G2 A | %13
w: ||||
 _B[=D=B][B,D]- [B,D]2- [B,D]/ z/ | [Ec][DB][CD]- [CD]3 | [CA] [B,G]2- [B,G]3/2 z/ z | %16
w: |||
 z D[DB]- [DB]/[DB]/[DB][CA] | z6 | z2 A- A3- | A z d- d3- | d3 z3 | [B,G][DB][CE] [B,D]2 [DG]- | %22
w: ||||||
 [DG][CE][B,D] [DG]2 [DA]- | [DA][DG][DG]- [DG]3- | [DG]3 z3 |] %25
w: |||
V:2
 x6 | x6 | z [E^G]2- [EG]3- | [EG] [EA]2- [EA]3- | [EA] [DF]2- [DF]3- | [DF] D2- D3- | %6
 D [^CE]2- [CE] z z | z D2 z3 | x6 | x6 | z [CG]2- [CG]3- | [CG]3 z3 | z ^D2- D3- | D3 z3 | x6 | %15
 x6 | x6 | [B,G][DB][CE] [B,D]3- | [B,D] .G2 z DD- | D .D2 z DD- | DD[DB]- [DB]/[DB]/[DB][CA] | %21
 x6 | x6 | x6 | x6 |] %25
V:3
 z G,,B,, D,G,D, | B,,G,,B,, D,G,D, | B,,E,,^G,, B,,E,B,, | ^G,,A,,C, E,A,E, | C,D,F, A,F,D, | %5
 C,B,,D, G,B,G, | D,A,,^C, E,A,E, | ^C,D,F, E,D,=C, | A,,G,,B,, D,G,D, | B,,G,,B,, D,G,D, | %10
 B,,=F,,G,, B,,D,B,, | G,,E,,G,, C,E,C, | G,,^D,,G,, C,^D,C, | G,,D,,G,, B,,D,B,, | %14
 G,,D,,F,, A,,D,A,, | F,,G,,D, B,, G,,2- | G,,D,G,- G,/G,/G,G, | G,G,G, G,3- | G,3 z CC- | %19
 C3 z B,B,- | B,D,G,- G,/G,/G,G, | G,G,G, G,2 G,- | G,G,G, B,2 C- | CB,B,- B,3- | B,3 z3 |] %25
V:4
 z6 | z6 | z6 | z6 | z6 | z6 | z6 | z6 | z6 | z6 | z6 | z6 | z6 | z6 | z6 | z6 | %16
 z2 G,,- G,,/G,,/G,,G,, | G,,G,,G,, G,,3- | G,,3 z D,D,- | D,3 z G,,G,,- | %20
 G,, z G,,- G,,/G,,/G,,G,, | G,,G,,G,, G,,2 B,,- | B,,C,D, D,2 D,- | D,G,,G,,- G,,3- | G,,3 z3 |] %25

